X:1
T:Le jet du Lama
C:Phillippe Plard
Z:Phil Taylor <aar09:pop.dial.pipex.com> abcusers 2001-02-22
M:C
K:Am
"Am"e/f/e/d/ cA B^G A2|"F"c/d/c/B/ A^G AB ca|\
"Am"e/f/e/d/ cA B^G A2|A/B/A/G/ FD EF E2:|
^GE DE F/E/D E2|^GE DE FF E2|^GE DE F/E/D E2|^DE F^F G^G A2:|
